pp/monitor_print.svg

<svg viewBox="0 0 20 20" fill="none" xmlns="http://www.w3.org/2000/svg" height="1em" width="1em">
  <g opacity="0.8">
    <path d="M8.5315 18.75C8.51094 18.6701 8.5 18.5863 8.5 18.5V16H3.5C2.67157 16 2 15.3284 2 14.5V4.5C2 3.67157 2.67157 3 3.5 3H18.5C19.3284 3 20 3.67157 20 4.5V14.5C20 15.3284 19.3284 16 18.5 16H13.5V18.5C13.5 18.5863 13.4891 18.6701 13.4685 18.75H15.5C15.7761 18.75 16 18.9739 16 19.25C16 19.5261 15.7761 19.75 15.5 19.75H6.5C6.22386 19.75 6 19.5261 6 19.25C6 18.9739 6.22386 18.75 6.5 18.75H8.5315Z" fill="currentColor"/>
  </g>
  <path fill-rule="evenodd" clip-rule="evenodd" d="M17.5 1.5H2.5C1.39543 1.5 0.5 2.39543 0.5 3.5V13.5C0.5 14.6046 1.39543 15.5 2.5 15.5H17.5C18.6046 15.5 19.5 14.6046 19.5 13.5V3.5C19.5 2.39543 18.6046 1.5 17.5 1.5ZM1.5 3.5C1.5 2.94772 1.94772 2.5 2.5 2.5H17.5C18.0523 2.5 18.5 2.94772 18.5 3.5V13.5C18.5 14.0523 18.0523 14.5 17.5 14.5H2.5C1.94772 14.5 1.5 14.0523 1.5 13.5V3.5Z" fill="black"/>
  <path fill-rule="evenodd" clip-rule="evenodd" d="M11.5 14.5H8.5C7.94772 14.5 7.5 14.9477 7.5 15.5V18C7.5 18.5523 7.94772 19 8.5 19H11.5C12.0523 19 12.5 18.5523 12.5 18V15.5C12.5 14.9477 12.0523 14.5 11.5 14.5ZM8.5 18V15.5H11.5V18H8.5Z" fill="black"/>
  <path d="M5.5 19C5.22386 19 5 18.7761 5 18.5C5 18.2239 5.22386 18 5.5 18H14.5C14.7761 18 15 18.2239 15 18.5C15 18.7761 14.7761 19 14.5 19H5.5Z" fill="black"/>
  <path d="M2.5 3H17.5C17.7761 3 18 3.22386 18 3.5V12.5C18 12.7761 17.7761 13 17.5 13H2.5C2.22386 13 2 12.7761 2 12.5V3.5C2 3.22386 2.22386 3 2.5 3Z" fill="black"/>
</svg>

<svg viewBox="0 0 20 20" fill="none" xmlns="http://www.w3.org/2000/svg" height="1em" width="1em">
  <path d="M8.531 18.75a1.002 1.002 0 0 1-.031-.25V16h-5A1.5 1.5 0 0 1 2 14.5v-10A1.5 1.5 0 0 1 3.5 3h15A1.5 1.5 0 0 1 20 4.5v10a1.5 1.5 0 0 1-1.5 1.5h-5v2.5a1 1 0 0 1-.031.25H15.5a.5.5 0 0 1 0 1h-9a.5.5 0 0 1 0-1h2.031Z" fill="currentColor" opacity=".8"/>
  <path fill-rule="evenodd" clip-rule="evenodd" d="M17.5 1.5h-15a2 2 0 0 0-2 2v10a2 2 0 0 0 2 2h15a2 2 0 0 0 2-2v-10a2 2 0 0 0-2-2Zm-16 2a1 1 0 0 1 1-1h15a1 1 0 0 1 1 1v10a1 1 0 0 1-1 1h-15a1 1 0 0 1-1-1v-10Z" fill="#000"/>
  <path fill-rule="evenodd" clip-rule="evenodd" d="M11.5 14.5h-3a1 1 0 0 0-1 1V18a1 1 0 0 0 1 1h3a1 1 0 0 0 1-1v-2.5a1 1 0 0 0-1-1Zm-3 3.5v-2.5h3V18h-3Z" fill="#000"/>
  <path d="M5.5 19a.5.5 0 0 1 0-1h9a.5.5 0 0 1 0 1h-9Zm-3-16h15a.5.5 0 0 1 .5.5v9a.5.5 0 0 1-.5.5h-15a.5.5 0 0 1-.5-.5v-9a.5.5 0 0 1 .5-.5Z" fill="#000"/>
</svg>
